X: 24107
T: Long Strand, The
R: reel
M: 4/4
K: Edorian
BEEE GBed|BdAG FEFA|BEGB BBed|BdAG FEEd|
BEGA BBeB|dBAG FEFA|BBBd GBed|BdAG FGBd||
dded Adfd|edfd Beef|dffd adfd|Bdgf eBdf|
dfed aadf|fgfd Bdef|ggag ffef|dBBA Beed||

